X:1
T:Aigua de Rotso
F:http://simonwascher.info/
Z:abc transcription Christoph Zeiler
M:2/4
L:1/8
K:G
G2 AB c2 A2 | dcde dcBA | G2 AB c2 A2 | dcde d4 |
G2 AB c2 A2 | dcde dcBA | G2 AB c2 A2 | dcde d4 ||
|:\
ABcA d2 cB | ABAG F2 D2 | ABcA d2 cB | ABAF G4 |
ABcA d2 cB | ABAG F2 D2 | ABcA d2 cB | ABAF G4 |]
%%wordsfont Times-Italic 11pt
W:aus Simon Waschers TradArchiv
